assets/Bell with slash/Flat/bell_with_slash_flat.svg

<svg width="32" height="32" viewBox="0 0 32 32" fill="none" xmlns="http://www.w3.org/2000/svg">
<path d="M12.5 27.5C12.9484 28.9419 14.3375 30 16 30C17.6625 30 19.0516 28.9419 19.5 27.5H12.5Z" fill="#FF822D"/>
<path d="M16 6.55C15.31 6.55 14.75 5.99 14.75 5.3V3.25C14.75 2.56 15.31 2 16 2C16.69 2 17.25 2.56 17.25 3.25V5.3C17.25 5.99 16.69 6.55 16 6.55Z" fill="#FFB02E"/>
<path d="M27.6 22.8428C26.64 22.0702 26.06 20.9164 25.82 19.6923L24.09 10.7926C23.32 6.8495 19.94 4.01003 16 4C12.06 4.01003 8.68 6.8495 7.91 10.7926L6.18 19.6923C5.94 20.9164 5.36 22.0702 4.4 22.8428C3.55 23.5351 3 24.5886 3 25.7926V27.0268C3 27.5686 3.43 28 3.95 28H16H28.05C28.58 28 29 27.5686 29 27.0268V25.7926C29 24.5886 28.45 23.5351 27.6 22.8428Z" fill="#F9C23C"/>
<path d="M28.569 30C28.382 29.9982 28.1972 29.9593 28.0254 29.8856C27.8536 29.8119 27.6982 29.7049 27.5683 29.5708L2.40029 4.44563C2.13911 4.17208 1.99549 3.80751 2.00011 3.42977C2.00473 3.05203 2.15721 2.69106 2.425 2.42394C2.69279 2.15682 3.05466 2.00471 3.43334 2.00011C3.81203 1.9955 4.17751 2.13876 4.45175 2.39929L29.5997 27.4845C29.8567 27.7536 30 28.111 30 28.4827C30 28.8544 29.8567 29.2118 29.5997 29.4809C29.4735 29.6341 29.3166 29.7594 29.1392 29.8488C28.9617 29.9381 28.7675 29.9896 28.569 30Z" fill="#F8312F"/>
</svg>

<svg xmlns="http://www.w3.org/2000/svg" width="32" height="32" fill="none"><path fill="#FF822D" d="M12.5 27.5c.448 1.442 1.838 2.5 3.5 2.5 1.663 0 3.052-1.058 3.5-2.5h-7Z"/><path fill="#FFB02E" d="M16 6.55c-.69 0-1.25-.56-1.25-1.25V3.25a1.25 1.25 0 0 1 2.5 0V5.3c0 .69-.56 1.25-1.25 1.25Z"/><path fill="#F9C23C" d="M27.6 22.843c-.96-.773-1.54-1.927-1.78-3.15l-1.73-8.9C23.32 6.85 19.94 4.01 16 4c-3.94.01-7.32 2.85-8.09 6.793l-1.73 8.9c-.24 1.223-.82 2.377-1.78 3.15a3.783 3.783 0 0 0-1.4 2.95v1.234c0 .542.43.973.95.973h24.1c.53 0 .95-.431.95-.973v-1.234c0-1.204-.55-2.258-1.4-2.95Z"/><path fill="#F8312F" d="M28.569 30a1.413 1.413 0 0 1-1-.43L2.4 4.447A1.445 1.445 0 0 1 3.433 2c.379-.004.745.139 1.019.4L29.6 27.483a1.445 1.445 0 0 1 0 1.997 1.431 1.431 0 0 1-1.031.519Z"/></svg>
